X:1
T:O Vos Omnes
T:Jacquet de Mantua
T:O Vos Omnes
C:Jacquet de Mantua
%%score [ 1 2 3 4 ]
L:1/8
Q:1/2=76
M:4/2
K:Db
V:1 treble nm="Soprano" snm="S."
V:2 treble nm="Alto" snm="A."
V:3 treble-8 transpose=-12 nm="Tenor" snm="T."
V:4 bass nm="Bass" snm="B."
V:1
 F16 | F8 A8 | B16 | F8 d8- | d4 c4 B4 A4 | (G4 F2 E2 B8) | A8 F8 | A12 G4 | (F4 E4 D8-) | D8 d8- | %10
w: O|vos o-|mnes|qui tran-|* si- tis per|vi- * * *|am qui|trans- i-|tis _ _|_ per|
 d4 (c4 B6 A2 | G16) | F8 B8- | B4 (A4 G8-) | (G4 F4 E8) | D16 | d16 | c8 c8 | B12 G4 | A16- | %20
w: _ vi- * *||am, per|_ vi- *||am,|at-|ten- di-|te et|vi-|
 A16 | B16 | A4 F4 A8 | G12 F2 E2 | F4 A6 G2 F4- | F4 E2 D2 E8 | F16 | F16 | A8 A8 | B16 | B12 B4 | %31
w: |de-|te, et vi-|de- * *|||te:|si|est do-|lor|si- mi-|
 A8 d8- | (d4 c4) B4 A4 | G4 F4 B8 | A8 G4 F4- | F2 ED E4 F8- | F8 d8- | (d4 c4) B4 A4 | %38
w: lis do-|* * lo- ri|me- o, do-|lo- ri me-|* * * * o,|_ do-|* * lo- ri|
 (G4 F8 E4) | F16- | F16 |] %41
w: me- * *|o.|_|
V:2
 z16 | z16 | z16 | B,16 | B,8 D8 | E16 | C8 A8- | A4 G4 F4 E4 | (D4 C2 B,2) F8- | F16- | F8 F8 | %11
w: |||O|vos o-|mnes|qui tran-|* si- tis per|vi- * * am|_|* per|
 (E6 D2 B,4) E4- | (E4 D2 C2 D8-) | D4 (C2 D2) E6 D2 | C2 B,2 B,8 =A,4 | B,12 C4 | D4 E4 F4 G4 | %17
w: vi- * * am,|_ _ _ _|* per _ vi- *||am, qui|tran- si- tis per|
 (A6 GF) E8 | G16 | F8 F8 | E12 C4 | D16- | D16 | (E16 | D16) | B,16- | B,16 | D16 | F8 F8 | G16 | %30
w: vi- * * am,|at-|ten- di-|te et|vi-||de-||te:|_|si|est do-|lor|
 G12 G4 | F8 A8- | (A4 G4) F4 E4 | (D4 C4) B,8 | (F6 E2) D4 C4 | (B,8 C8) | F,16- | F,8 D8- | %38
w: si- mi-|lis do-|* * lo- ri|me- * o,|do- * lo- ri|me- *|o,|_ do-|
 (D4 C4) B,8 | A,8 D8 | C16 |] %41
w: * * lo-|ri me-|o.|
V:3
 z16 | z16 | z16 | z16 | z16 | z16 | F16 | F8 A8 | B16 | F16 | d12 c4 | B4 A4 (G4 F2 E2) | B16- | %13
w: ||||||O|vos o-|mnes|qui|tran- si-|tis per vi- * *|am,|
 B8 E8- | E8 E8 | F8 B8- | (B4 c4) (d8 | e8) c8 | d16- | d16 | c8 c8 | B12 G4 | A16 | B12 A4- | %24
w: _ per|_ vi-|am, per|_ _ vi-|* am,|at-||ten- di-|te et|vi-|de- te,|
 A4 F4 A8 | G16 | F16 | B16 | c8 c8 | e16 | d12 d4 | (d4 c2 B2 A8) | (d12 c4) | B4 A4 (G8 | %34
w: _ et vi-|de-|te:|si|est do-|lor|si- mi-|lis _ _ _|do- *|lo- ri me-|
 F8) B8- | B4 A2 G2 A8- | A16 | (d12 c4) | B4 A4 G8 | F8 B8- | (B4 =A2 =G2 A8) |] %41
w: * o,|_ _ _ _||do- *|lo- ri me-|o, me-|* * * o.|
V:4
 z16 | z16 | z16 | z16 | z16 | z16 | z16 | z16 | z16 | B,,16 | B,,8 D,8 | E,16 | B,,16 | G,12 F,4 | %14
w: |||||||||O|vos o-|mnes|qui|tran- si-|
 E,4 D,4 C,8 | B,,16 | B,16 | A,8 A,8 | (G,12 F,2 E,2 | D,16) | z16 | G,16 | F,8 F,8 | E,12 A,,4 | %24
w: tis per vi-|am,|at-|ten- di-|te _ _|_||at-|ten- di-|te et|
 D,16 | E,16 | B,,16 | B,,16 | F,8 F,8 | E,16 | G,12 G,4 | D,16- | D,16 | z8 D8- | %34
w: vi-|de-|te:|si|est do-|lor|si- mi-|lis|_|do-|
 (D4 C4) B,4 A,4 | G,8 F,8 | (D,12 C,4) | B,,4 A,,4 G,,8- | G,,4 A,,4 B,,4 C,4 | D,12 C,2 B,,2 | %40
w: * * lo- ri|me- o,|do- *|lo- ri me-|||
 F,16 |] %41
w: o.|

